public/icons/plans.svg

<svg width="74" height="74" viewBox="0 0 74 74" fill="none" xmlns="http://www.w3.org/2000/svg">
<path d="M19.2399 4.43994C11.0832 4.43994 4.43994 11.0832 4.43994 19.2399V54.7599C4.43994 62.9167 11.0832 69.5599 19.2399 69.5599H54.7599C62.9167 69.5599 69.5599 62.9167 69.5599 54.7599V19.2399C69.5599 11.0832 62.9167 4.43994 54.7599 4.43994H19.2399ZM20.7199 7.39994H29.5999V33.4329C28.2272 32.8742 26.7295 32.5599 25.1599 32.5599C23.5904 32.5599 22.0927 32.8742 20.7199 33.4329V7.39994ZM32.5599 7.39994H40.0206C40.0356 7.68559 40.032 7.97538 40.0553 8.25846L43.0067 8.01854C42.9901 7.81436 42.9925 7.60522 42.9806 7.39994H50.3199C50.3199 7.67226 50.3254 7.94285 50.3402 8.21221L53.2973 8.06189C53.2854 7.84285 53.2799 7.62194 53.2799 7.39994H54.7599C61.3173 7.39994 66.5999 12.6826 66.5999 19.2399V20.6853C66.3778 20.6854 66.1581 20.7134 65.938 20.7026L65.7877 23.6597C66.057 23.6745 66.3276 23.6799 66.5999 23.6799V31.0192C66.3947 31.0074 66.1855 31.0098 65.9813 30.9932L65.7414 33.9446C66.0245 33.9679 66.3143 33.9643 66.5999 33.9792V53.2424C66.5874 53.2422 66.5749 53.2422 66.5624 53.2424C66.1698 53.2424 65.7934 53.3983 65.5158 53.6758C65.2383 53.9534 65.0824 54.3298 65.0824 54.7224C65.0828 55.1046 65.2311 55.4718 65.4962 55.7471C65.7613 56.0224 66.1226 56.1845 66.5046 56.1995C65.9406 60.8793 62.6735 64.7048 58.2952 66.0652C58.3273 65.9435 58.3439 65.8182 58.3443 65.6923C58.3443 65.2998 58.1884 64.9233 57.9108 64.6458C57.6333 64.3682 57.2568 64.2123 56.8643 64.2123C56.4718 64.2123 56.0954 64.3682 55.8178 64.6458C55.5402 64.9233 55.3843 65.2998 55.3843 65.6923C55.3846 66.0014 55.4816 66.3026 55.6618 66.5537C55.3632 66.5761 55.0644 66.5999 54.7599 66.5999H32.5599V53.6239C35.2618 51.4508 36.9999 48.1237 36.9999 44.3999C36.9999 40.6762 35.2618 37.3491 32.5599 35.176V32.4356C32.5782 32.4369 32.5965 32.4379 32.6149 32.4385C33.0074 32.4385 33.3838 32.2826 33.6614 32.0051C33.9389 31.7275 34.0949 31.3511 34.0949 30.9585C34.0949 30.566 33.9389 30.1896 33.6614 29.912C33.3838 29.6345 33.0074 29.4785 32.6149 29.4785C32.5965 29.4792 32.5782 29.4801 32.5599 29.4814V7.39994ZM17.7599 7.49533V19.3238C17.4274 19.3934 17.129 19.5754 16.9147 19.8391C16.7005 20.1028 16.5835 20.4322 16.5835 20.772C16.5835 21.1117 16.7005 21.4411 16.9147 21.7048C17.129 21.9685 17.4274 22.1505 17.7599 22.2202V35.176C15.0581 37.3491 13.3199 40.6762 13.3199 44.3999C13.3199 48.1237 15.0581 51.4508 17.7599 53.6239V66.4988C11.9072 65.7729 7.39994 60.8148 7.39994 54.7599V32.8606C7.66806 33.0928 8.01068 33.221 8.36541 33.2219C8.75793 33.2219 9.13437 33.066 9.41193 32.7884C9.68948 32.5109 9.84541 32.1344 9.84541 31.7419C9.84541 31.3494 9.68948 30.9729 9.41193 30.6954C9.13437 30.4178 8.75793 30.2619 8.36541 30.2619C8.01105 30.2619 7.66848 30.3891 7.39994 30.6203V19.2399C7.39994 17.9018 7.62999 16.6222 8.03588 15.4243C8.14397 15.4492 8.25451 15.4618 8.36541 15.4619C8.55977 15.4619 8.75222 15.4236 8.93178 15.3492C9.11134 15.2749 9.2745 15.1658 9.41193 15.0284C9.54936 14.891 9.65838 14.7278 9.73275 14.5483C9.80713 14.3687 9.84541 14.1763 9.84541 13.9819C9.8452 13.7596 9.79494 13.5403 9.69836 13.3401C9.60178 13.14 9.46136 12.9641 9.28752 12.8256C11.1393 9.9514 14.1981 7.93773 17.7599 7.49533ZM43.631 11.8891L40.7549 12.5886C41.0997 14.0065 41.5626 15.4087 42.125 16.754L44.8538 15.6122C44.3506 14.409 43.9389 13.1574 43.631 11.8891ZM54.0575 11.8978L51.271 12.8979C51.8097 14.4016 52.571 15.8176 53.5285 17.1038L55.9017 15.3376C55.1188 14.2838 54.4986 13.1276 54.0575 11.8978ZM13.2159 15.8955C12.8234 15.8955 12.4469 16.0514 12.1694 16.329C11.8918 16.6065 11.7359 16.983 11.7359 17.3755C11.7359 17.768 11.8918 18.1445 12.1694 18.422C12.4469 18.6996 12.8234 18.8555 13.2159 18.8555C13.6084 18.8555 13.9848 18.6996 14.2624 18.422C14.54 18.1445 14.6959 17.768 14.6959 17.3755C14.6959 16.983 14.54 16.6065 14.2624 16.329C13.9848 16.0514 13.6084 15.8955 13.2159 15.8955ZM58.6623 18.0981L56.8961 20.4742C58.1837 21.4303 59.5983 22.1902 61.102 22.7289L62.1021 19.9424C60.8737 19.5013 59.7146 18.8811 58.6623 18.0981ZM46.6431 19.0983L44.1224 20.6506C44.8861 21.8908 45.7551 23.0831 46.7038 24.1916L48.9527 22.2664C48.1032 21.2733 47.3268 20.2083 46.6431 19.0983ZM51.7248 25.0385L49.7996 27.2874C50.9067 28.2361 52.099 29.1065 53.3378 29.8717L54.8929 27.351C53.7829 26.6658 52.7164 25.8881 51.7248 25.0385ZM58.3761 29.1403L57.2343 31.872C58.5796 32.4344 59.979 32.8973 61.3968 33.2421L62.0992 30.366C60.8309 30.0566 59.5779 29.6435 58.3761 29.1403ZM37.4624 32.8721C37.0699 32.8721 36.6935 33.0281 36.4159 33.3056C36.1384 33.5832 35.9824 33.9596 35.9824 34.3521C35.9824 34.7446 36.1384 35.1211 36.4159 35.3986C36.6935 35.6762 37.0699 35.8321 37.4624 35.8321C37.855 35.8321 38.2314 35.6762 38.509 35.3986C38.7865 35.1211 38.9424 34.7446 38.9424 34.3521C38.9424 33.9596 38.7865 33.5832 38.509 33.3056C38.2314 33.0281 37.855 32.8721 37.4624 32.8721ZM13.2159 33.6555C12.8234 33.6555 12.4469 33.8114 12.1694 34.089C11.8918 34.3665 11.7359 34.743 11.7359 35.1355C11.7359 35.528 11.8918 35.9045 12.1694 36.182C12.4469 36.4596 12.8234 36.6155 13.2159 36.6155C13.6084 36.6155 13.9848 36.4596 14.2624 36.182C14.54 35.9045 14.6959 35.528 14.6959 35.1355C14.6959 34.743 14.54 34.3665 14.2624 34.089C13.9848 33.8114 13.6084 33.6555 13.2159 33.6555ZM25.1599 35.5199C30.0818 35.5199 34.0399 39.4781 34.0399 44.3999C34.0399 49.3218 30.0818 53.2799 25.1599 53.2799C20.2381 53.2799 16.2799 49.3218 16.2799 44.3999C16.2799 39.4781 20.2381 35.5199 25.1599 35.5199ZM42.3129 36.2686C41.9204 36.2686 41.5439 36.4245 41.2664 36.7021C40.9888 36.9796 40.8329 37.3561 40.8329 37.7486C40.8329 38.1411 40.9888 38.5176 41.2664 38.7951C41.5439 39.0727 41.9204 39.2286 42.3129 39.2286C42.7054 39.2286 43.0819 39.0727 43.3594 38.7951C43.637 38.5176 43.7929 38.1411 43.7929 37.7486C43.7929 37.3561 43.637 36.9796 43.3594 36.7021C43.0819 36.4245 42.7054 36.2686 42.3129 36.2686ZM25.1599 38.4799L20.7199 50.3199L25.1599 47.3599L29.5999 50.3199L25.1599 38.4799ZM47.1634 39.6622C46.7709 39.6622 46.3944 39.8181 46.1169 40.0957C45.8393 40.3732 45.6834 40.7497 45.6834 41.1422C45.6834 41.5347 45.8393 41.9112 46.1169 42.1887C46.3944 42.4663 46.7709 42.6222 47.1634 42.6222C47.5559 42.6222 47.9323 42.4663 48.2099 42.1887C48.4875 41.9112 48.6434 41.5347 48.6434 41.1422C48.6434 40.7497 48.4875 40.3732 48.2099 40.0957C47.9323 39.8181 47.5559 39.6622 47.1634 39.6622ZM52.0138 43.0587C51.6213 43.0587 51.2449 43.2146 50.9673 43.4922C50.6898 43.7697 50.5338 44.1462 50.5338 44.5387C50.5342 44.761 50.5846 44.9803 50.6813 45.1804C49.8407 45.6494 48.5495 46.1488 46.724 46.1488C43.3407 46.1488 42.0383 44.4693 42.0383 44.4693C40.7196 46.4288 39.9599 48.8245 39.9599 51.3953C39.9599 58.1648 45.2539 63.6399 51.7999 63.6399C58.346 63.6399 63.6399 58.1648 63.6399 51.3953C63.6399 48.8245 62.8789 46.4288 61.5587 44.4693C61.5587 44.4693 60.2563 46.1488 56.873 46.1488C55.288 46.1488 54.0903 45.7649 53.2481 45.3567C53.4087 45.1141 53.4941 44.8296 53.4938 44.5387C53.4938 44.1462 53.3379 43.7697 53.0604 43.4922C52.7828 43.2146 52.4064 43.0587 52.0138 43.0587ZM51.7999 47.9467C52.9987 48.5521 54.6944 49.1088 56.8759 49.1088C58.2197 49.1088 59.3457 48.9076 60.2781 48.6116C60.5431 49.4996 60.6828 50.4376 60.6828 51.3981C60.6814 56.516 56.6958 60.6799 51.7999 60.6799C46.9041 60.6799 42.9199 56.5146 42.9199 51.3953C42.9199 50.4347 43.0553 49.4996 43.3217 48.6116C44.2527 48.9076 45.3816 49.1088 46.7269 49.1088C48.9069 49.1102 50.6011 48.5521 51.7999 47.9467ZM37.4624 50.6321C37.0699 50.6321 36.6935 50.7881 36.4159 51.0656C36.1384 51.3432 35.9824 51.7196 35.9824 52.1121C35.9824 52.5047 36.1384 52.8811 36.4159 53.1586C36.6935 53.4362 37.0699 53.5921 37.4624 53.5921C37.855 53.5921 38.2314 53.4362 38.509 53.1586C38.7865 52.8811 38.9424 52.5047 38.9424 52.1121C38.9424 51.7196 38.7865 51.3432 38.509 51.0656C38.2314 50.7881 37.855 50.6321 37.4624 50.6321ZM20.7199 55.367C22.0927 55.9257 23.5904 56.2399 25.1599 56.2399C26.7295 56.2399 28.2272 55.9257 29.5999 55.367V66.5999H20.7199V55.367Z" fill="white"/>
</svg>

<svg xmlns="http://www.w3.org/2000/svg" width="74" height="74" fill="none"><path fill="#fff" d="M19.24 4.44c-8.157 0-14.8 6.643-14.8 14.8v35.52c0 8.157 6.643 14.8 14.8 14.8h35.52c8.157 0 14.8-6.643 14.8-14.8V19.24c0-8.157-6.643-14.8-14.8-14.8zm1.48 2.96h8.88v26.033a11.8 11.8 0 0 0-4.44-.873c-1.57 0-3.067.314-4.44.873zm11.84 0h7.46c.016.286.012.575.035.858l2.952-.24c-.017-.204-.014-.413-.026-.618h7.339q-.001.408.02.812l2.957-.15q-.018-.33-.017-.662h1.48c6.557 0 11.84 5.283 11.84 11.84v1.445c-.222 0-.442.028-.662.018l-.15 2.957q.404.02.812.02v7.34c-.205-.013-.414-.01-.619-.027l-.24 2.952c.284.023.573.02.859.034v19.263h-.038a1.48 1.48 0 0 0-.057 2.958 11.81 11.81 0 0 1-8.21 9.865 1.48 1.48 0 1 0-2.633.489c-.299.022-.598.046-.902.046h-22.2V53.624C35.262 51.45 37 48.124 37 44.4s-1.738-7.05-4.44-9.224v-2.74l.055.002a1.48 1.48 0 1 0-.055-2.957zm-14.8.095v11.829a1.48 1.48 0 0 0 0 2.896v12.956c-2.702 2.173-4.44 5.5-4.44 9.224s1.738 7.05 4.44 9.224v12.875A11.81 11.81 0 0 1 7.4 54.759V32.862a1.48 1.48 0 1 0 0-2.24V19.24c0-1.338.23-2.618.636-3.816a1.47 1.47 0 0 0 1.376-.396 1.48 1.48 0 0 0-.124-2.202 11.8 11.8 0 0 1 8.472-5.33M43.63 11.89l-2.876.7c.345 1.418.808 2.82 1.37 4.165l2.729-1.142a25 25 0 0 1-1.223-3.723m10.426.009-2.786 1c.539 1.504 1.3 2.92 2.258 4.206l2.373-1.766a13.3 13.3 0 0 1-1.845-3.44m-40.841 3.998a1.48 1.48 0 1 0 0 2.959 1.48 1.48 0 0 0 0-2.96m45.446 2.202-1.766 2.376a16.2 16.2 0 0 0 4.206 2.255l1-2.787a13.3 13.3 0 0 1-3.44-1.844m-12.019 1-2.52 1.553a28 28 0 0 0 2.58 3.54l2.25-1.925a25 25 0 0 1-2.31-3.168m5.082 5.94-1.925 2.25c1.107.948 2.299 1.819 3.538 2.584l1.555-2.521a25.4 25.4 0 0 1-3.168-2.312m6.651 4.102-1.142 2.732a28 28 0 0 0 4.163 1.37l.702-2.876a25 25 0 0 1-3.723-1.226m-20.914 3.732a1.48 1.48 0 1 0 0 2.96 1.48 1.48 0 0 0 0-2.96m-24.246.784a1.48 1.48 0 1 0 0 2.959 1.48 1.48 0 0 0 0-2.96M25.16 35.52a8.86 8.86 0 0 1 8.88 8.88 8.86 8.86 0 0 1-8.88 8.88 8.86 8.86 0 0 1-8.88-8.88 8.86 8.86 0 0 1 8.88-8.88m17.153.749a1.48 1.48 0 1 0 0 2.959 1.48 1.48 0 0 0 0-2.96m-17.153 2.21-4.44 11.84 4.44-2.96 4.44 2.96zm22.003 1.183a1.48 1.48 0 1 0 0 2.96 1.48 1.48 0 0 0 0-2.96m4.85 3.397a1.48 1.48 0 0 0-1.332 2.121c-.84.47-2.131.969-3.957.969-3.383 0-4.686-1.68-4.686-1.68-1.318 1.96-2.078 4.355-2.078 6.926 0 6.77 5.294 12.245 11.84 12.245s11.84-5.475 11.84-12.245c0-2.57-.761-4.966-2.081-6.926 0 0-1.303 1.68-4.686 1.68-1.585 0-2.783-.384-3.625-.792a1.48 1.48 0 0 0-.188-1.865 1.48 1.48 0 0 0-1.046-.433m-.213 4.888c1.199.605 2.894 1.162 5.076 1.162 1.344 0 2.47-.201 3.402-.497.265.888.405 1.826.405 2.786-.002 5.118-3.987 9.282-8.883 9.282s-8.88-4.165-8.88-9.285c0-.96.135-1.895.402-2.783.93.296 2.06.497 3.405.497 2.18.001 3.874-.557 5.073-1.162m-14.338 2.685a1.48 1.48 0 1 0 0 2.96 1.48 1.48 0 0 0 0-2.96M20.72 55.367c1.373.559 2.87.873 4.44.873s3.067-.314 4.44-.873V66.6h-8.88z"/></svg>
